svg/material-icons/local_police/materialiconstwotone/24px.svg

<svg xmlns="http://www.w3.org/2000/svg" width="24" height="24" viewBox="0 0 24 24"><path d="M12 3.19 5 6.3V11c0 4.52 2.98 8.69 7 9.93 4.02-1.23 7-5.41 7-9.93V6.3l-7-3.11zm2.5 9.4.9 3.88-3.4-2.05-3.4 2.05.9-3.87-3-2.59 3.96-.34L12 6.02l1.54 3.64 3.96.34-3 2.59z" opacity=".3"/><path d="m14.5 12.59.9 3.88-3.4-2.05-3.4 2.05.9-3.87-3-2.59 3.96-.34L12 6.02l1.54 3.64 3.96.34-3 2.59zM12 3.19l7 3.11V11c0 4.52-2.98 8.69-7 9.93-4.02-1.24-7-5.41-7-9.93V6.3l7-3.11M12 1 3 5v6c0 5.55 3.84 10.74 9 12 5.16-1.26 9-6.45 9-12V5l-9-4z"/></svg>

<svg xmlns="http://www.w3.org/2000/svg" enable-background="new 0 0 24 24" height="24" viewBox="0 0 24 24" width="24"><rect fill="none" height="24" width="24"/><path d="M12,3.19L5,6.3V11c0,4.52,2.98,8.69,7,9.93c4.02-1.23,7-5.41,7-9.93V6.3L12,3.19z M14.5,12.59l0.9,3.88 L12,14.42l-3.4,2.05l0.9-3.87l-3-2.59l3.96-0.34L12,6.02l1.54,3.64L17.5,10L14.5,12.59z" opacity=".3"/><path d="M14.5,12.59l0.9,3.88L12,14.42l-3.4,2.05l0.9-3.87l-3-2.59l3.96-0.34L12,6.02l1.54,3.64L17.5,10L14.5,12.59z M12,3.19 l7,3.11V11c0,4.52-2.98,8.69-7,9.93C7.98,19.69,5,15.52,5,11V6.3L12,3.19 M12,1L3,5v6c0,5.55,3.84,10.74,9,12c5.16-1.26,9-6.45,9-12 V5L12,1L12,1z"/></svg>
